X:1
T:Walter Sammon's Grandmother  "Arr. John Walsh"
M:C
L:1/8
Q:80
C:Dave Richardson's
S:Reel
K:HP
|: {g}ce{A}ef{gef}e2af | \
{g}ec{g}AB{g}cB{gBG}B2 | \
{g}ce{A}ef{gef}e2af |
{g}ec{g}Bd{g}cA{gAGAG}A2:| [ | \
{g}ceae{g}feae | \
{g}ceae{g}fB{G}B2 |
{g}ceae{g}feaf | \
{g}ecBd{g}cA{gAGAG}A2{g}ceae{g}feae | \
{g}ceae{g}fB{G}B2 |
ag{a}fe{g}fgaf | \
{g}ec{g}Bd{g}cA{gAGAG}A2|]
